app/images/dist/voicemail.svg

<svg width="48" height="48" viewBox="0 0 48 48" fill="none" xmlns="http://www.w3.org/2000/svg">
<path d="M11.4922 31.0059C15.6343 31.0059 18.9922 27.6467 18.9922 23.503C18.9922 19.3592 15.6343 16 11.4922 16C7.35005 16 3.99219 19.3592 3.99219 23.503C3.99219 27.6467 7.35005 31.0059 11.4922 31.0059ZM11.4922 31.0059H36.4922M36.4922 31.0059C40.6343 31.0059 43.9922 27.6467 43.9922 23.503C43.9922 19.3592 40.6343 16 36.4922 16C32.3501 16 28.9922 19.3592 28.9922 23.503C28.9922 27.6467 32.3501 31.0059 36.4922 31.0059Z" stroke="#DC143C" stroke-width="1.5"/>
</svg>

<svg width="48" height="48" fill="none" xmlns="http://www.w3.org/2000/svg"><path d="M11.492 31.006c4.142 0 7.5-3.36 7.5-7.503a7.502 7.502 0 0 0-7.5-7.503c-4.142 0-7.5 3.36-7.5 7.503a7.501 7.501 0 0 0 7.5 7.503Zm0 0h25m0 0c4.142 0 7.5-3.36 7.5-7.503a7.502 7.502 0 0 0-7.5-7.503c-4.142 0-7.5 3.36-7.5 7.503a7.501 7.501 0 0 0 7.5 7.503Z" stroke="#DC143C" stroke-width="1.5"/></svg>
